files/usr/lib/cinnamon-settings/data/icons/screen.svg

<?xml version="1.0" encoding="UTF-8" standalone="no"?>
<!-- Created with Inkscape (http://www.inkscape.org/) -->
<svg
   xmlns:svg="http://www.w3.org/2000/svg"
   xmlns="http://www.w3.org/2000/svg"
   xmlns:xlink="http://www.w3.org/1999/xlink"
   version="1.0"
   width="64"
   height="64"
   id="svg4569">
  <defs
     id="defs4571">
    <linearGradient
       id="linearGradient3924">
      <stop
         id="stop3926"
         style="stop-color:#464646;stop-opacity:1"
         offset="0" />
      <stop
         id="stop3928"
         style="stop-color:#8c8c8c;stop-opacity:1"
         offset="0.35046947" />
      <stop
         id="stop3930"
         style="stop-color:#969696;stop-opacity:1"
         offset="0.50989443" />
      <stop
         id="stop3932"
         style="stop-color:#aaaaaa;stop-opacity:1"
         offset="0.61998242" />
      <stop
         id="stop3934"
         style="stop-color:#646464;stop-opacity:1"
         offset="1" />
    </linearGradient>
    <linearGradient
       id="linearGradient3912">
      <stop
         id="stop3914"
         style="stop-color:#787878;stop-opacity:1"
         offset="0" />
      <stop
         id="stop3916"
         style="stop-color:#bebebe;stop-opacity:1"
         offset="0.35046947" />
      <stop
         id="stop3918"
         style="stop-color:#c8c8c8;stop-opacity:1"
         offset="0.49417919" />
      <stop
         id="stop3920"
         style="stop-color:#e6e6e6;stop-opacity:1"
         offset="0.58907253" />
      <stop
         id="stop3922"
         style="stop-color:#8c8c8c;stop-opacity:1"
         offset="1" />
    </linearGradient>
    <linearGradient
       id="linearGradient6592-2-7">
      <stop
         id="stop6594-0-2"
         style="stop-color:#ffffff;stop-opacity:0.27450982"
         offset="0" />
      <stop
         id="stop6596-2-5"
         style="stop-color:#ffffff;stop-opacity:0"
         offset="1" />
    </linearGradient>
    <linearGradient
       id="linearGradient3342">
      <stop
         id="stop3344"
         style="stop-color:#ffffff;stop-opacity:0"
         offset="0" />
      <stop
         id="stop3346"
         style="stop-color:#ffffff;stop-opacity:1"
         offset="1" />
    </linearGradient>
    <linearGradient
       id="linearGradient10691-1">
      <stop
         id="stop10693-3"
         style="stop-color:#000000;stop-opacity:1"
         offset="0" />
      <stop
         id="stop10695-1"
         style="stop-color:#000000;stop-opacity:0"
         offset="1" />
    </linearGradient>
    <linearGradient
       id="linearGradient6712">
      <stop
         id="stop6714"
         style="stop-color:#3c3c3c;stop-opacity:1"
         offset="0" />
      <stop
         id="stop6716"
         style="stop-color:#1e1e1e;stop-opacity:1"
         offset="1" />
    </linearGradient>
    <linearGradient
       x1="12.9375"
       y1="8.4375"
       x2="15.25"
       y2="19.8125"
       id="linearGradient2986"
       xlink:href="#linearGradient6592-2-7"
       gradientUnits="userSpaceOnUse"
       gradientTransform="matrix(1.0952382,0,0,1.3333324,-2.2857144,2.4e-6)" />
    <radialGradient
       cx="12.244348"
       cy="4.8630676"
       r="20.999998"
       fx="12.244348"
       fy="4.8630676"
       id="radialGradient2989"
       xlink:href="#linearGradient6712"
       gradientUnits="userSpaceOnUse"
       gradientTransform="matrix(1.4167634,1.999111e-2,-1.319114e-2,1.1175011,-5.3255699,6.599117)" />
    <linearGradient
       x1="15.573899"
       y1="46.971004"
       x2="23.578077"
       y2="46.971004"
       id="linearGradient2993"
       xlink:href="#linearGradient3342"
       gradientUnits="userSpaceOnUse"
       gradientTransform="matrix(1.1176471,0,0,1,-2.3519696,-3.4710029)"
       spreadMethod="reflect" />
    <radialGradient
       cx="6.702713"
       cy="73.615715"
       r="7.228416"
       fx="6.702713"
       fy="73.615715"
       id="radialGradient3001"
       xlink:href="#linearGradient10691-1"
       gradientUnits="userSpaceOnUse"
       gradientTransform="matrix(1.9368007,0,0,0.4150287,11.018182,13.447365)" />
    <linearGradient
       x1="361.10583"
       y1="87.050117"
       x2="361.10583"
       y2="94.396416"
       id="linearGradient3832-9"
       xlink:href="#linearGradient3912"
       gradientUnits="userSpaceOnUse"
       gradientTransform="matrix(0.9964089,0,0,1.0001438,-332.882,-50.012717)" />
    <linearGradient
       x1="61.968769"
       y1="35.944077"
       x2="61.968769"
       y2="43.378311"
       id="linearGradient3834-6"
       xlink:href="#linearGradient3924"
       gradientUnits="userSpaceOnUse"
       gradientTransform="translate(-38,1)" />
    <radialGradient
       cx="6.702713"
       cy="73.615715"
       r="7.228416"
       fx="6.702713"
       fy="73.615715"
       id="radialGradient2427"
       xlink:href="#linearGradient10691-1"
       gradientUnits="userSpaceOnUse"
       gradientTransform="matrix(1.9368007,0,0,0.4150287,11.018182,13.447365)" />
    <linearGradient
       x1="361.10583"
       y1="87.050117"
       x2="361.10583"
       y2="94.396416"
       id="linearGradient2429"
       xlink:href="#linearGradient3912"
       gradientUnits="userSpaceOnUse"
       gradientTransform="matrix(0.9964089,0,0,1.0001438,-332.882,-50.012717)" />
    <linearGradient
       x1="61.968769"
       y1="35.944077"
       x2="61.968769"
       y2="43.378311"
       id="linearGradient2431"
       xlink:href="#linearGradient3924"
       gradientUnits="userSpaceOnUse"
       gradientTransform="translate(-38,1)" />
    <linearGradient
       x1="15.573899"
       y1="46.971004"
       x2="23.578077"
       y2="46.971004"
       id="linearGradient2433"
       xlink:href="#linearGradient3342"
       gradientUnits="userSpaceOnUse"
       gradientTransform="matrix(1.1176471,0,0,1,-2.3519696,-3.4710029)"
       spreadMethod="reflect" />
    <radialGradient
       cx="12.244348"
       cy="4.8630676"
       r="20.999998"
       fx="12.244348"
       fy="4.8630676"
       id="radialGradient2435"
       xlink:href="#linearGradient6712"
       gradientUnits="userSpaceOnUse"
       gradientTransform="matrix(1.4167634,1.999111e-2,-1.319114e-2,1.1175011,-5.3255699,6.599117)" />
    <linearGradient
       x1="12.9375"
       y1="8.4375"
       x2="15.25"
       y2="19.8125"
       id="linearGradient2437"
       xlink:href="#linearGradient6592-2-7"
       gradientUnits="userSpaceOnUse"
       gradientTransform="matrix(1.0952382,0,0,1.3333324,-2.2857144,2.4e-6)" />
    <linearGradient
       x1="12.9375"
       y1="8.4375"
       x2="15.25"
       y2="19.8125"
       id="linearGradient2441"
       xlink:href="#linearGradient6592-2-7"
       gradientUnits="userSpaceOnUse"
       gradientTransform="matrix(1.4761906,0,0,1.7999988,-3.4285715,-0.3999978)" />
    <radialGradient
       cx="12.244348"
       cy="4.8630676"
       r="20.999998"
       fx="12.244348"
       fy="4.8630676"
       id="radialGradient2444"
       xlink:href="#linearGradient6712"
       gradientUnits="userSpaceOnUse"
       gradientTransform="matrix(1.8890178,2.6416824e-2,-1.7588186e-2,1.4766979,-7.1007597,8.79169)" />
    <linearGradient
       x1="15.573899"
       y1="46.971004"
       x2="23.578077"
       y2="46.971004"
       id="linearGradient2448"
       xlink:href="#linearGradient3342"
       gradientUnits="userSpaceOnUse"
       gradientTransform="matrix(1.53067,0,0,1.3333333,-4.0902539,-4.1280028)"
       spreadMethod="reflect" />
    <linearGradient
       x1="361.10583"
       y1="87.050117"
       x2="361.10583"
       y2="94.396416"
       id="linearGradient2451"
       xlink:href="#linearGradient3912"
       gradientUnits="userSpaceOnUse"
       gradientTransform="matrix(1.3111548,0,0,1.3337028,-437.61398,-66.532889)" />
    <linearGradient
       x1="61.968769"
       y1="35.944077"
       x2="61.968769"
       y2="43.378311"
       id="linearGradient2453"
       xlink:href="#linearGradient3924"
       gradientUnits="userSpaceOnUse"
       gradientTransform="matrix(1.3158802,0,0,1.333511,-49.584575,1.4931321)" />
    <radialGradient
       cx="6.702713"
       cy="73.615715"
       r="7.228416"
       fx="6.702713"
       fy="73.615715"
       id="radialGradient2456"
       xlink:href="#linearGradient10691-1"
       gradientUnits="userSpaceOnUse"
       gradientTransform="matrix(2.5824009,0,0,0.5533716,14.690909,17.92982)" />
  </defs>
  <path
     d="M 50.666665,58.666665 C 50.666665,60.875805 42.309314,62.666665 31.999998,62.666665 C 21.690683,62.666665 13.333333,60.875805 13.333333,58.666665 C 13.333333,56.457527 21.690683,54.666665 31.999998,54.666665 C 42.309314,54.666665 50.666665,56.457527 50.666665,58.666665 L 50.666665,58.666665 z"
     id="path2589"
     style="opacity:0.3;fill:url(#radialGradient2456);fill-opacity:1;fill-rule:nonzero;stroke:none;stroke-width:0.80000001;marker:none;visibility:visible;display:inline;overflow:visible" />
  <path
     d="M 23.919786,48.499137 C 23.919786,48.499137 24.106341,54.176921 23.175861,55.500329 C 22.245381,56.823738 20.393895,56.839175 20.393895,56.839175 C 19.205803,56.978209 19.195975,59.500862 20.393895,59.500862 L 43.60601,59.500862 C 44.803931,59.500862 44.794351,56.976435 43.60601,56.839175 C 43.60601,56.839175 41.754604,56.823733 40.824137,55.500329 C 39.893671,54.176924 40.08012,48.499137 40.08012,48.499137 L 23.919786,48.499137 L 23.919786,48.499137 z"
     id="rect1789"
     style="fill:url(#linearGradient2451);fill-opacity:1;fill-rule:nonzero;stroke:url(#linearGradient2453);stroke-width:0.99827456;stroke-linecap:round;stroke-linejoin:round;marker:none;stroke-miterlimit:4;stroke-dasharray:none;stroke-dashoffset:0.50000001;stroke-opacity:1;visibility:visible;display:inline;overflow:visible;enable-background:new" />
  <path
     d="M 20.51358,58.5 L 43.486421,58.5"
     id="path3340"
     style="fill:none;stroke:url(#linearGradient2448);stroke-width:1px;stroke-linecap:square;stroke-linejoin:miter;stroke-opacity:1" />
  <rect
     width="62.99976"
     height="43.99968"
     rx="1.4000021"
     ry="1.3333333"
     x="0.50011969"
     y="4.5002007"
     id="rect2722"
     style="fill:#1a1a1a;fill-opacity:1;stroke:#000000;stroke-width:1.00023937;stroke-linecap:round;stroke-linejoin:round;stroke-miterlimit:4;stroke-dasharray:none;stroke-dashoffset:0.50000001;stroke-opacity:1" />
  <rect
     width="56"
     height="37"
     x="4"
     y="8"
     id="rect2716"
     style="fill:url(#radialGradient2444);fill-opacity:1;fill-rule:evenodd;stroke:none;display:inline;enable-background:new" />
  <path
     d="M 1,4.999999 L 63,4.999999 L 63,19.400006 L 1,31.999999 L 1,4.999999 z"
     id="rect6588"
     style="fill:url(#linearGradient2441);fill-opacity:1;stroke:none" />
</svg>

<?xml version="1.0" encoding="UTF-8" standalone="no"?>
<svg xmlns="http://www.w3.org/2000/svg" height="64" width="64" version="1.1" xmlns:xlink="http://www.w3.org/1999/xlink">
 <defs>
  <linearGradient id="g" stop-color="#fff" y2="46.971" spreadMethod="reflect" gradientUnits="userSpaceOnUse" x2="23.578" gradientTransform="matrix(1.5307,0,0,1.3333,-4.0903,-4.128)" y1="46.971" x1="15.574">
   <stop stop-opacity="0" offset="0"/>
   <stop offset="1"/>
  </linearGradient>
  <linearGradient id="h" y2="94.396" gradientUnits="userSpaceOnUse" x2="361.11" gradientTransform="matrix(1.3112,0,0,1.3337,-437.61,-66.533)" y1="87.05" x1="361.11">
   <stop stop-color="#787878" offset="0"/>
   <stop stop-color="#bebebe" offset=".35047"/>
   <stop stop-color="#c8c8c8" offset=".49418"/>
   <stop stop-color="#e6e6e6" offset=".58907"/>
   <stop stop-color="#8c8c8c" offset="1"/>
  </linearGradient>
  <linearGradient id="i" y2="43.378" gradientUnits="userSpaceOnUse" x2="61.969" gradientTransform="matrix(1.3159,0,0,1.3335,-49.585,1.4931)" y1="35.944" x1="61.969">
   <stop stop-color="#464646" offset="0"/>
   <stop stop-color="#8c8c8c" offset=".35047"/>
   <stop stop-color="#969696" offset=".50989"/>
   <stop stop-color="#aaa" offset=".61998"/>
   <stop stop-color="#646464" offset="1"/>
  </linearGradient>
  <radialGradient id="j" gradientUnits="userSpaceOnUse" cy="73.616" cx="6.7027" gradientTransform="matrix(2.5824 0 0 .55337 14.691 17.93)" r="7.2284">
   <stop offset="0"/>
   <stop stop-opacity="0" offset="1"/>
  </radialGradient>
  <linearGradient id="f" stop-color="#fff" y2="19.812" gradientUnits="userSpaceOnUse" x2="15.25" gradientTransform="matrix(1.4762 0 0 1.8 -3.4286 -.4)" y1="8.4375" x1="12.938">
   <stop stop-opacity=".27451" offset="0"/>
   <stop stop-opacity="0" offset="1"/>
  </linearGradient>
  <radialGradient id="b" gradientUnits="userSpaceOnUse" cy="4.8631" cx="12.244" gradientTransform="matrix(1.889 .026417 -.017588 1.4767 -7.1008 8.7917)" r="21">
   <stop stop-color="#3c3c3c" offset="0"/>
   <stop stop-color="#1e1e1e" offset="1"/>
  </radialGradient>
 </defs>
 <path opacity=".3" d="m50.667 58.667c0 2.2091-8.3574 4-18.667 4-10.309 0-18.667-1.7909-18.667-4s8.3574-4 18.667-4c10.309 0 18.667 1.7909 18.667 4z" fill="url(#j)"/>
 <path stroke-linejoin="round" style="enable-background:new" d="m23.92 48.499s0.18656 5.6778-0.74392 7.0012-2.782 1.3388-2.782 1.3388c-1.1881 0.13903-1.1979 2.6617 0 2.6617h23.212c1.1979 0 1.1883-2.5244 0-2.6617 0 0-1.8514-0.01544-2.7819-1.3388-0.93047-1.3234-0.74402-7.0012-0.74402-7.0012h-16.16v0z" stroke-dashoffset=".5" stroke="url(#i)" stroke-linecap="round" fill="url(#h)"/>
 <path d="m20.514 58.5h22.973" stroke="url(#g)" stroke-linecap="square" stroke-width="1px" fill="none"/>
 <rect stroke-linejoin="round" stroke-dashoffset=".5" rx="1.4" ry="1.3333" height="44" width="63" stroke="#000" stroke-linecap="round" y="4.5" x=".5" fill="#1a1a1a"/>
 <rect fill-rule="evenodd" height="37" width="56" y="8" x="4" fill="url(#b)"/>
 <path d="m1 5h62v14.4l-62 12.6v-27z" fill="url(#f)"/>
</svg>
